ahus-pwa/src/Assets/Images/Logga192x192.svg

<svg enable-background="new 0 0 192 192" viewBox="0 0 192 192" xmlns="http://www.w3.org/2000/svg"><path d="m148.6 61.5h.3v-21.6l-18.6-18.6v48.8c4.5-5.5 11.2-8.6 18.3-8.6zm34.6 25.4-16.5-16.3c3.6 4.5 5.5 10.1 5.5 15.8 0 12.9-11.1 23.9-23.2 23.9-7.2 0-14-3.2-18.6-8.8v49.3h-129.6l18.6 18.6h129.5v-49.1l1.6 1.7c4.5 4.5 10.6 7 17 7 12.2 0 23.2-10.9 23.2-23.9.1-6.9-2.6-13.4-7.5-18.2zm-123.9 43c12.9 0 21.4-3.7 26-12.2v10.3h20.4v-83.7h-20.5v10.1c-5.5-8.2-14.2-12.3-26.4-12.3-12.6 0-22.6 4.1-31 12.9-7.8 8.1-12 19.1-12 30.7 0 25 18.5 44.2 43.5 44.2zm.3-68.4c12.3 0 23.6 10.9 23.6 25 0 12.9-11.1 23.9-23.2 23.9-13.1 0-24.2-10.3-24.2-24.8-.1-13.3 10.5-24.1 23.8-24.1-.1 0 0 0 0 0z" fill="#6ec81e"/></svg>

<?xml version="1.0" encoding="utf-8"?>
<!-- Generator: Adobe Illustrator 22.1.0, SVG Export Plug-In . SVG Version: 6.00 Build 0)  -->
<svg version="1.1" id="Lager_1" xmlns="http://www.w3.org/2000/svg" xmlns:xlink="http://www.w3.org/1999/xlink" x="0px" y="0px"
	 viewBox="0 0 192 192" style="enable-background:new 0 0 192 192;" xml:space="preserve">
<style type="text/css">
	.st0{fill:#6EC81E;}
</style>
<path class="st0" d="M148.6,61.5h0.3V39.9l-18.6-18.6v48.8C134.8,64.6,141.5,61.5,148.6,61.5z M183.2,86.9l-16.5-16.3
	c3.6,4.5,5.5,10.1,5.5,15.8c0,12.9-11.1,23.9-23.2,23.9c-7.2,0-14-3.2-18.6-8.8v49.3H0.8l18.6,18.6h129.5v-49.1l1.6,1.7
	c4.5,4.5,10.6,7,17,7c12.2,0,23.2-10.9,23.2-23.9C190.8,98.2,188.1,91.7,183.2,86.9L183.2,86.9z M59.3,129.9
	c12.9,0,21.4-3.7,26-12.2v10.3h20.4V44.3H85.2v10.1C79.7,46.2,71,42.1,58.8,42.1c-12.6,0-22.6,4.1-31,12.9c-7.8,8.1-12,19.1-12,30.7
	C15.8,110.7,34.3,129.9,59.3,129.9L59.3,129.9z M59.6,61.5c12.3,0,23.6,10.9,23.6,25c0,12.9-11.1,23.9-23.2,23.9
	c-13.1,0-24.2-10.3-24.2-24.8C35.7,72.3,46.3,61.5,59.6,61.5C59.5,61.5,59.6,61.5,59.6,61.5z"/>
</svg>
